svg/add-cloud.svg

<?xml version="1.0" encoding="UTF-8"?>
<svg xmlns="http://www.w3.org/2000/svg" xmlns:xlink="http://www.w3.org/1999/xlink" width="32" height="32" viewBox="0 0 32 32">
<path fill-rule="nonzero" fill="rgb(0%, 0%, 0%)" fill-opacity="1" d="M 18.554688 5.761719 C 15.3125 5.761719 12.5625 7.46875 11.191406 10.28125 C 10.488281 9.835938 9.640625 9.601562 8.730469 9.601562 C 6.402344 9.601562 4.625 11.371094 4.480469 13.765625 C 1.625 14.734375 0 17 0 20.050781 C 0.00390625 23.464844 2.773438 26.230469 6.1875 26.238281 L 19.242188 26.238281 C 19.382812 27.707031 20.03125 29.078125 21.074219 30.125 C 23.5625 32.613281 27.636719 32.613281 30.125 30.125 C 32.042969 28.207031 32.476562 25.355469 31.441406 23.003906 C 31.800781 22.257812 32 21.425781 32 20.542969 C 32 17.515625 29.6875 14.835938 26.871094 14.449219 C 26.875 14.324219 26.878906 14.199219 26.878906 14.078125 C 26.878906 9.414062 23.222656 5.761719 18.554688 5.761719 M 25.601562 20.484375 C 26.957031 20.480469 28.261719 21.019531 29.21875 21.980469 C 31.210938 23.972656 31.210938 27.230469 29.21875 29.21875 C 27.21875 31.210938 23.980469 31.210938 21.980469 29.21875 C 19.988281 27.214844 19.988281 23.980469 21.980469 21.980469 C 22.941406 21.019531 24.242188 20.480469 25.601562 20.484375 M 25.601562 21.796875 C 25.433594 21.792969 25.269531 21.859375 25.148438 21.980469 C 25.027344 22.097656 24.960938 22.261719 24.964844 22.433594 L 24.964844 24.960938 L 22.433594 24.960938 C 22.265625 24.960938 22.101562 25.027344 21.980469 25.144531 C 21.859375 25.265625 21.792969 25.429688 21.796875 25.601562 C 21.792969 25.769531 21.859375 25.933594 21.980469 26.050781 C 22.101562 26.171875 22.265625 26.238281 22.433594 26.234375 L 24.964844 26.234375 L 24.964844 28.765625 C 24.964844 29.128906 25.238281 29.402344 25.601562 29.402344 C 25.78125 29.402344 25.960938 29.308594 26.050781 29.21875 C 26.164062 29.09375 26.230469 28.933594 26.234375 28.765625 L 26.234375 26.234375 L 28.765625 26.234375 C 28.949219 26.234375 29.128906 26.144531 29.21875 26.050781 C 29.335938 25.929688 29.398438 25.769531 29.402344 25.601562 C 29.40625 25.429688 29.339844 25.265625 29.21875 25.148438 C 29.097656 25.027344 28.9375 24.960938 28.765625 24.964844 L 26.234375 24.964844 L 26.234375 22.433594 C 26.238281 22.265625 26.171875 22.101562 26.054688 21.980469 C 25.933594 21.859375 25.769531 21.792969 25.601562 21.796875 M 25.601562 21.796875 "/>
</svg>

<svg role="img" viewBox="0 0 32 32" xmlns="http://www.w3.org/2000/svg"><path d="M18.555 5.762c-3.242 0-5.992 1.707-7.364 4.52-.703-.446-1.55-.68-2.46-.68-2.329 0-4.106 1.77-4.25 4.164C1.624 14.734 0 17 0 20.05a6.2 6.2 0 0 0 6.188 6.187h13.054c.14 1.469.79 2.84 1.832 3.887 2.488 2.488 6.563 2.488 9.051 0 1.918-1.918 2.352-4.77 1.316-7.121.36-.746.559-1.578.559-2.461 0-3.027-2.312-5.707-5.129-6.094q.007-.189.008-.37c0-4.665-3.656-8.317-8.324-8.317m7.047 14.722a5.1 5.1 0 0 1 3.617 1.496c1.992 1.993 1.992 5.25 0 7.239a5.13 5.13 0 0 1-7.239 0 5.13 5.13 0 0 1 0-7.239 5.1 5.1 0 0 1 3.622-1.496m0 1.313a.62.62 0 0 0-.454.183.6.6 0 0 0-.183.454v2.527h-2.531a.625.625 0 0 0-.637.64.6.6 0 0 0 .183.45.62.62 0 0 0 .454.183h2.53v2.532c0 .363.274.636.638.636.18 0 .359-.093.449-.183a.7.7 0 0 0 .183-.453v-2.532h2.532c.183 0 .363-.09.453-.183a.66.66 0 0 0 .183-.45.6.6 0 0 0-.183-.453.62.62 0 0 0-.453-.183h-2.532v-2.531a.62.62 0 0 0-.633-.637m0 0" fill="rgb(0%, 0%, 0%)"/></svg>
